X:1
T:Ring On, Ye Joyous Christmas Bells!
T:Ring On, Ye Joyous Christmas Bells!
T:Arthur Henry Brown
T:Hermon Griswold Batterson, 1877
T:Public Domain Courtesy of the Cyber Hymnal™
T:Public Domain Courtesy of the Cyber Hymnal™
C:Arthur Henry Brown
Z:Public Domain
Z:Courtesy of the Cyber Hymnal™
%%score ( 1 2 ) ( 3 4 )
L:1/8
Q:1/4=80
M:2/4
K:C
V:1 treble 
V:2 treble 
V:3 bass 
V:4 bass 
V:1
 G | EF DE | Cc dG | Af [Ge][Fd] | [Ec]2 z G | EF DE | C[Cc] [Dd][G,G] | ([A,A][B,B] [Cc])[CE] | %8
w: ~|~ ~ ~ ~|~ ~ ~ ~|~ ~ ~ ~|~ 1.~Ring|on, ye joy- ous|Christ- mas bells! Ring|on! * * Ring|
w: ~|~ ~ ~ ~|~ ~ ~ ~|~ ~ ~ ~|~ 2.~Ring|on, O mer- ry|Christ- mas bells! Ring|on! * * Ring|
w: ~|~ ~ ~ ~|~ ~ ~ ~|~ ~ ~ ~|~ 3.~Ring|on, ye hap- py|Christ- mas bells! Ring|on! * * Ring|
w: ~|~ ~ ~ ~|~ ~ ~ ~|~ ~ ~ ~|~ 4.~Ring|on, ye ho- ly|Christ- mas bells! Ring|on! * * Ring|
w: ~|~ ~ ~ ~|~ ~ ~ ~|~ ~ ~ ~|~ 5.~Ring|on, ye glad- some|Christ- mas bells! Ring|on! * * Ring|
w: ~|~ ~ ~ ~|~ ~ ~ ~|~ ~ ~ ~|~ 6.~Ring|on, ye peace- ful|Christ- mas bells! Ring|on! * * Ring|
 G3 [FG] | [EG][EA] [DA][^Fd] | [Gd]>[^FB] G[Ee] | (dA B)[=Fc] | B3 [B,G] | [CG][DG] [EG][FB] | %14
w: on! What|tale of love your|mu- sic tells, Ring|on! * * Ring|on! The|Christ is born for|
w: on! What|peace from out your|clang- or wells, Ring|on! * * Ring|on! Peace|comes to earth; “good|
w: on! With|ho- ly joy the|clam- or swells, Ring|on! * * Ring|on! Oh,|hap- py day for|
w: on! O’er|hill and dale, through|wild- est dells, Ring|on! * * Ring|on! In|tri- umph ring for|
w: on! ’Tis|“mer- cy mild” the|sound fore- tells, Ring|on! * * Ring|on! The|Prince of Peace now|
w: on! Tell|of the hope that|in us dwells, Ring|on! * * Ring|on! To|Je- sus now all|
 [Gc]>[Fd] [Ee][CA] | [DA][EA] [FA][G^c] | [Ad]>[Ge] [Ff][Gd] | [Ge][Ac] [Fd][GB] | %18
w: sin- ful men; ’Tis|Christ- mas morn, Ring|out a- gain! Ring|out a- gain! Ring|
w: will to men,” A|price- less birth. Ring|out a- gain! Ring|out a- gain! Ring|
w: wea- ry men; Oh,|roy- al day, Ring|out a- gain! Ring|out a- gain! Ring|
w: ho- ly men All|glad- ness bring, Ring|out a- gain! Ring|out a- gain! Ring|
w: pleads for men; He|will not cease, Ring|out a- gain! Ring|out a- gain! Ring|
w: ranks of men In|wor- ship bow, Ring|out a- gain! Ring|out a- gain! Ring|
 [Ec][FA] [DB][EG] | (FA G)[Fd] | [Ec]3 [Ge] | [Af]>[Ad] [GB][Fd] | [Ee][Ec] [FA][DF] | %23
w: out a- gain! Ring|out * * a-|gain! Ring|on, ye joy- ous|Christ- mas bells! Ring|
w: out a- gain! Ring|out * * a-|gain! Ring|on, O mer- ry|Christ- mas bells, Ring|
w: out a- gain! Ring|out * * a-|gain! Ring|on, ye hap- py|Christ- mas bells! Ring|
w: out a- gain! Ring|out * * a-|gain! Ring|on, ye ho- ly|Christ- mas bells! Ring|
w: out a- gain! Ring|out * * a-|gain! Ring|on, ye glad- some|Christ- mas bells! Ring|
w: out a- gain! Ring|out * * a-|gain! Ring|on, ye peace- ful|Christ- mas bells! Ring|
 (EA G)[FG] | G3 [Gc] | [FB]>[EA] [DG][Ec] | [Gd][GB] [Gc][Ff] | ([Ge][Ad] c) z/ x3/2 | [Ec]2 z |] %29
w: on! * * Ring|on! What|tale of love your|mu- sic tells, Ring|on! * *|Ring|
w: on! * * Ring|on! What|peace from out your|clang- or wells, Ring|on! * *|Ring|
w: on! * * Ring|on! With|ho- ly joy the|cla- mor swells, Ring|on! * *|Ring|
w: on! * * Ring|on! O’er|hill and dale, through|wild- est dells Ring|on! * *|Ring|
w: on! * * Ring|on! ’Tis|“mer- cy mild” the|sound fore- tells, Ring|on! * *|Ring|
w: on! * * Ring|on! Tell|of the hope that|in us dwells, Ring|on! * *|Ring|
V:2
 x | x4 | x4 | A2 x2 | x3 G | EF DE | C x3 | x4 | (D2 E) x | x4 | x2 G x | ^F3 x | (GD B,) x | x4 | %14
 x4 | x4 | x4 | x4 | x4 | F3 x | x4 | x4 | x4 | C2 G x | (ED C) x | x4 | x4 | x2 G3/2(BF/) | x3 |] %29
V:3
 G, | E,F, D,E, | C,C DG, | A,F, G,G,, | C,2 z G, | E,F, D,E, | C,C DG, | A,B, C[A,C] | %8
 B,2 [E,C][D,B,] | [C,C][C,A,] [C,^F,][C,A,] | [B,,D]>[D,D] [E,B,][C,C] | (A,C B,)[D,A,] | %12
 (G,2 D,)G, | A,B, C[D,D] | [E,C]>[G,B,] CA, | B,^C D[E,E] | [F,D]>[A,^C] D[G,B,] | [C,-C]4 | %18
 G,3 C | (DA, B,)G, | C3 [G,=B,] | [F,C]>[F,D] [G,D][G,B,] | [^G,B,][A,C] [F,C][F,A,] | %23
 (G,A,/B,/ [E,C])[D,B,] | (G,F, E,)E | F>C B,[A,C] | B, z/ [E,E][A,C] x/ | %27
 C3/2 (z/ [G,E])[B,,D] x | [C,C]2 z |] %29
V:4
 x | x4 | x4 | x4 | x3 G, | E,F, D,E, | C,C DG, | (A,B, C) x | G, F, x2 | x4 | x4 | C,3 x | %12
 G,,3 x | x4 | x2 C x | x4 | x2 D x | x4 | C,4 | C,4- | (C,_B, A,) x | x4 | x4 | G,F, x2 | C,3 x | %25
 x4 | G,3/2DF,/ x | G, F, F/ x5/2 | x3 |] %29

